packages/icons/src/lib/svgs/metamask.svg

<svg width="20" height="20" viewBox="0 0 20 20" fill="none" xmlns="http://www.w3.org/2000/svg">
<path d="M19.0114 0.75L11.1982 6.53117L12.6512 3.12414L19.0114 0.75Z" fill="url(#paint0_linear_9993_54108)"/>
<path d="M19.0114 0.75L11.1982 6.53117L12.6512 3.12414L19.0114 0.75Z" fill="url(#paint1_linear_9993_54108)"/>
<path d="M0.989258 0.75L8.73283 6.58512L7.34951 3.12413L0.989258 0.75Z" fill="url(#paint2_linear_9993_54108)"/>
<path d="M0.989258 0.75L8.73283 6.58512L7.34951 3.12413L0.989258 0.75Z" fill="url(#paint3_linear_9993_54108)"/>
<path d="M16.1985 14.1545L14.1196 17.3303L18.571 18.5559L19.8462 14.2239L16.1985 14.1545Z" fill="url(#paint4_linear_9993_54108)"/>
<path d="M16.1985 14.1545L14.1196 17.3303L18.571 18.5559L19.8462 14.2239L16.1985 14.1545Z" fill="url(#paint5_linear_9993_54108)"/>
<path d="M0.162598 14.2239L1.43 18.5559L5.87368 17.3303L3.80253 14.1545L0.162598 14.2239Z" fill="url(#paint6_linear_9993_54108)"/>
<path d="M0.162598 14.2239L1.43 18.5559L5.87368 17.3303L3.80253 14.1545L0.162598 14.2239Z" fill="url(#paint7_linear_9993_54108)"/>
<path d="M5.63394 8.78966L4.39746 10.6551L8.80248 10.8555L8.65566 6.11493L5.63394 8.78966Z" fill="url(#paint8_linear_9993_54108)"/>
<path d="M5.63394 8.78966L4.39746 10.6551L8.80248 10.8555L8.65566 6.11493L5.63394 8.78966Z" fill="url(#paint9_linear_9993_54108)"/>
<path d="M14.3667 8.78974L11.2987 6.06104L11.1982 10.8556L15.6032 10.6551L14.3667 8.78974Z" fill="url(#paint10_linear_9993_54108)"/>
<path d="M5.87354 17.3304L8.5397 16.0431L6.2445 14.2548L5.87354 17.3304Z" fill="#E27625"/>
<path d="M11.4604 16.0431L14.1189 17.3304L13.7557 14.2548L11.4604 16.0431Z" fill="#E27625"/>
<path d="M14.1189 17.3303L11.4604 16.043L11.6768 17.7697L11.6536 18.5019L14.1189 17.3303Z" fill="url(#paint11_linear_9993_54108)"/>
<path d="M5.87354 17.3303L8.34655 18.5019L8.33108 17.7697L8.5397 16.043L5.87354 17.3303Z" fill="url(#paint12_radial_9993_54108)"/>
<path d="M8.39287 13.1137L6.18262 12.4663L7.74369 11.7494L8.39287 13.1137Z" fill="url(#paint13_linear_9993_54108)"/>
<path d="M11.6084 13.1137L12.2576 11.7494L13.8264 12.4663L11.6084 13.1137Z" fill="url(#paint14_linear_9993_54108)"/>
<path d="M5.87336 17.3303L6.25979 14.1545L3.80225 14.2239L5.87336 17.3303Z" fill="#CC6228"/>
<path d="M13.7402 14.1545L14.1189 17.3303L16.1978 14.2239L13.7402 14.1545Z" fill="#CC6228"/>
<path d="M15.6032 10.6549L11.1982 10.8553L11.6078 13.1139L12.257 11.7495L13.8258 12.4664L15.6032 10.6549Z" fill="#CC6228"/>
<path d="M6.18265 12.4664L7.74372 11.7495L8.39291 13.1139L8.80248 10.8553L4.39746 10.6549L6.18265 12.4664Z" fill="#CC6228"/>
<path d="M4.39746 10.6549L6.24449 14.2547L6.18263 12.4664L4.39746 10.6549Z" fill="#E27525"/>
<path d="M13.8259 12.4664L13.7563 14.2547L15.6034 10.6549L13.8259 12.4664Z" fill="#E27525"/>
<path d="M8.8027 10.8555L8.39307 13.114L8.91085 15.781L9.02679 12.2661L8.8027 10.8555Z" fill="#E27525"/>
<path d="M11.1974 10.8555L10.981 12.2584L11.0892 15.781L11.6069 13.114L11.1974 10.8555Z" fill="#E27525"/>
<path d="M11.6071 13.1138L11.0894 15.7808L11.4603 16.0429L13.7556 14.2546L13.8251 12.4663L11.6071 13.1138Z" fill="url(#paint15_linear_9993_54108)"/>
<path d="M6.18262 12.4663L6.24448 14.2546L8.53969 16.0429L8.91065 15.7808L8.39287 13.1138L6.18262 12.4663Z" fill="url(#paint16_linear_9993_54108)"/>
<path d="M11.6542 18.502L11.6773 17.7698L11.4764 17.6002L8.5243 17.6002L8.33108 17.7698L8.34655 18.502L5.87354 17.3304L6.73908 18.0395L8.49336 19.2497L11.4996 19.2497L13.2616 18.0395L14.1194 17.3304L11.6542 18.502Z" fill="#C0AC9D"/>
<path d="M11.46 16.0432L11.089 15.7812L8.90966 15.7812L8.53876 16.0432L8.33008 17.7699L8.52329 17.6003L11.4754 17.6003L11.6764 17.7699L11.46 16.0432Z" fill="url(#paint17_linear_9993_54108)"/>
<path d="M19.3431 6.90885L20 3.71767L19.0108 0.75L11.4604 6.33849L14.3662 8.78967L18.4698 9.98447L19.374 8.92845L18.9799 8.64321L19.6058 8.07285L19.1267 7.70283L19.7527 7.22491L19.3431 6.90885Z" fill="url(#paint18_linear_9993_54108)"/>
<path d="M-9.57447e-10 3.71791L0.664618 6.9091L0.239574 7.22516L0.873276 7.70308L0.394134 8.07309L1.02011 8.64346L0.625975 8.9287L1.53017 9.98472L5.63382 8.78991L8.53954 6.33873L0.989199 0.750244L-9.57447e-10 3.71791Z" fill="url(#paint19_linear_9993_54108)"/>
<path d="M18.4705 9.9846L14.3669 8.78986L15.6034 10.6553L13.7563 14.255L16.1984 14.2242L19.8461 14.2242L18.4705 9.9846Z" fill="url(#paint20_radial_9993_54108)"/>
<path d="M18.4705 9.9846L14.3669 8.78986L15.6034 10.6553L13.7563 14.255L16.1984 14.2242L19.8461 14.2242L18.4705 9.9846Z" fill="url(#paint21_linear_9993_54108)"/>
<path d="M5.63407 8.78986L1.53047 9.9846L0.162598 14.2242L3.80254 14.2242L6.24459 14.255L4.3976 10.6553L5.63407 8.78986Z" fill="url(#paint22_radial_9993_54108)"/>
<path d="M5.63407 8.78986L1.53047 9.9846L0.162598 14.2242L3.80254 14.2242L6.24459 14.255L4.3976 10.6553L5.63407 8.78986Z" fill="url(#paint23_linear_9993_54108)"/>
<path d="M11.1992 10.8557L11.4619 6.33863L12.652 3.12433L7.35059 3.12433L8.54069 6.33863L8.80345 10.8557L8.90392 12.274L8.91166 15.7813L11.091 15.7813L11.0987 12.274L11.1992 10.8557Z" fill="url(#paint24_linear_9993_54108)"/>
<path d="M11.1992 10.8557L11.4619 6.33863L12.652 3.12433L7.35059 3.12433L8.54069 6.33863L8.80345 10.8557L8.90392 12.274L8.91166 15.7813L11.091 15.7813L11.0987 12.274L11.1992 10.8557Z" fill="url(#paint25_linear_9993_54108)" fill-opacity="0.6"/>
<defs>
<linearGradient id="paint0_linear_9993_54108" x1="12.1751" y1="6.126" x2="22.2155" y2="-4.07259" gradientUnits="userSpaceOnUse">
<stop stop-color="#E17726"/>
<stop offset="1" stop-color="#E17726" stop-opacity="0"/>
</linearGradient>
<linearGradient id="paint1_linear_9993_54108" x1="15.1744" y1="6.16694" x2="12.5312" y2="-2.34498" gradientUnits="userSpaceOnUse">
<stop stop-color="#E27625"/>
<stop offset="1" stop-color="#FCA15C" stop-opacity="0.83"/>
</linearGradient>
<linearGradient id="paint2_linear_9993_54108" x1="9.48777" y1="6.60035" x2="-0.394579" y2="-3.75635" gradientUnits="userSpaceOnUse">
<stop stop-color="#E27625"/>
<stop offset="1" stop-color="#E27625" stop-opacity="0"/>
</linearGradient>
<linearGradient id="paint3_linear_9993_54108" x1="4.93005" y1="6.21749" x2="2.22192" y2="-2.3459" gradientUnits="userSpaceOnUse">
<stop stop-color="#E27625"/>
<stop offset="1" stop-color="#FCA15C" stop-opacity="0.83"/>
</linearGradient>
<linearGradient id="paint4_linear_9993_54108" x1="13.1243" y1="14.1901" x2="18.7392" y2="22.1949" gradientUnits="userSpaceOnUse">
<stop offset="0.256463" stop-color="#E27625"/>
<stop offset="1" stop-color="#E27625" stop-opacity="0"/>
</linearGradient>
<linearGradient id="paint5_linear_9993_54108" x1="17.0339" y1="18.2786" x2="14.958" y2="11.8429" gradientUnits="userSpaceOnUse">
<stop stop-color="#E27625"/>
<stop offset="1" stop-color="#FCA15C" stop-opacity="0.83"/>
</linearGradient>
<linearGradient id="paint6_linear_9993_54108" x1="6.32455" y1="14.1901" x2="-0.948858" y2="20.831" gradientUnits="userSpaceOnUse">
<stop offset="0.247205" stop-color="#E27625"/>
<stop offset="1" stop-color="#E27625" stop-opacity="0"/>
</linearGradient>
<linearGradient id="paint7_linear_9993_54108" x1="3.06903" y1="18.2786" x2="0.988544" y2="11.8462" gradientUnits="userSpaceOnUse">
<stop stop-color="#E27625"/>
<stop offset="1" stop-color="#FCA15C" stop-opacity="0.83"/>
</linearGradient>
<linearGradient id="paint8_linear_9993_54108" x1="5.2177" y1="10.0789" x2="13.677" y2="3.12174" gradientUnits="userSpaceOnUse">
<stop stop-color="#E27625"/>
<stop offset="1" stop-color="#E27625" stop-opacity="0"/>
</linearGradient>
<linearGradient id="paint9_linear_9993_54108" x1="6.63922" y1="10.5568" x2="3.76845" y2="4.20056" gradientUnits="userSpaceOnUse">
<stop stop-color="#E27625"/>
<stop offset="1" stop-color="#FCA15C" stop-opacity="0.83"/>
</linearGradient>
<linearGradient id="paint10_linear_9993_54108" x1="13.44" y1="10.5535" x2="10.5148" y2="4.14973" gradientUnits="userSpaceOnUse">
<stop stop-color="#E27625"/>
<stop offset="1" stop-color="#FCA15C" stop-opacity="0.83"/>
</linearGradient>
<linearGradient id="paint11_linear_9993_54108" x1="12.7897" y1="16.043" x2="15.6521" y2="22.4464" gradientUnits="userSpaceOnUse">
<stop stop-color="#D5BFB2"/>
<stop offset="1" stop-color="#D5BFB2" stop-opacity="0"/>
</linearGradient>
<radialGradient id="paint12_radial_9993_54108" cx="0" cy="0" r="1" gradientUnits="userSpaceOnUse" gradientTransform="translate(8.5112 15.509) rotate(116.98) scale(12.5928 13.6543)">
<stop stop-color="#D5BFB2"/>
<stop offset="1" stop-color="#D5BFB2" stop-opacity="0"/>
</radialGradient>
<linearGradient id="paint13_linear_9993_54108" x1="7.28774" y1="11.7494" x2="7.28774" y2="13.1137" gradientUnits="userSpaceOnUse">
<stop stop-color="#041836"/>
<stop offset="1" stop-color="#17396B"/>
</linearGradient>
<linearGradient id="paint14_linear_9993_54108" x1="12.7174" y1="11.7494" x2="12.7174" y2="13.1137" gradientUnits="userSpaceOnUse">
<stop stop-color="#041836"/>
<stop offset="1" stop-color="#17396B"/>
</linearGradient>
<linearGradient id="paint15_linear_9993_54108" x1="13.5183" y1="12.4508" x2="6.48202" y2="20.5148" gradientUnits="userSpaceOnUse">
<stop offset="0.200338" stop-color="#F5841F"/>
<stop offset="1" stop-color="#F5841F" stop-opacity="0"/>
</linearGradient>
<linearGradient id="paint16_linear_9993_54108" x1="6.16656" y1="12.4508" x2="11.7797" y2="19.8033" gradientUnits="userSpaceOnUse">
<stop offset="0.32798" stop-color="#F5841F"/>
<stop offset="1" stop-color="#F5841F" stop-opacity="0"/>
</linearGradient>
<linearGradient id="paint17_linear_9993_54108" x1="10.0032" y1="15.7812" x2="10.0032" y2="17.7699" gradientUnits="userSpaceOnUse">
<stop stop-color="#041836"/>
<stop offset="1" stop-color="#17396B"/>
</linearGradient>
<linearGradient id="paint18_linear_9993_54108" x1="13.9241" y1="8.01205" x2="19.9712" y2="3.83055" gradientUnits="userSpaceOnUse">
<stop stop-color="#592B0D"/>
<stop offset="1" stop-color="#763E1A"/>
</linearGradient>
<linearGradient id="paint19_linear_9993_54108" x1="7.94157" y1="6.72543" x2="0.414883" y2="2.67259" gradientUnits="userSpaceOnUse">
<stop stop-color="#592B0D"/>
<stop offset="1" stop-color="#763E1A"/>
</linearGradient>
<radialGradient id="paint20_radial_9993_54108" cx="0" cy="0" r="1" gradientUnits="userSpaceOnUse" gradientTransform="translate(15.1692 11.19) rotate(11.6894) scale(8.80836 9.81509)">
<stop offset="0.263819" stop-color="#F5841F"/>
<stop offset="1" stop-color="#F5841F" stop-opacity="0"/>
</radialGradient>
<linearGradient id="paint21_linear_9993_54108" x1="16.8555" y1="13.9106" x2="13.9454" y2="6.18416" gradientUnits="userSpaceOnUse">
<stop stop-color="#E27625"/>
<stop offset="1" stop-color="#FCA15C" stop-opacity="0.83"/>
</linearGradient>
<radialGradient id="paint22_radial_9993_54108" cx="0" cy="0" r="1" gradientUnits="userSpaceOnUse" gradientTransform="translate(6.87796 14.1902) rotate(-159.818) scale(15.5826 17.3415)">
<stop offset="0.299865" stop-color="#F5841F"/>
<stop offset="0.567167" stop-color="#F5841F" stop-opacity="0"/>
</radialGradient>
<linearGradient id="paint23_linear_9993_54108" x1="3.25779" y1="13.9106" x2="0.344971" y2="6.1866" gradientUnits="userSpaceOnUse">
<stop stop-color="#E27625"/>
<stop offset="1" stop-color="#FCA15C" stop-opacity="0.83"/>
</linearGradient>
<linearGradient id="paint24_linear_9993_54108" x1="9.96169" y1="3.12186" x2="9.96169" y2="28.5788" gradientUnits="userSpaceOnUse">
<stop offset="0.267932" stop-color="#F5841F"/>
<stop offset="1" stop-color="#FFC796" stop-opacity="0.89"/>
</linearGradient>
<linearGradient id="paint25_linear_9993_54108" x1="9.99262" y1="15.7813" x2="9.99262" y2="3.1171" gradientUnits="userSpaceOnUse">
<stop stop-color="#FFCF52" stop-opacity="0"/>
<stop offset="1" stop-color="#CB690B"/>
</linearGradient>
</defs>
</svg>

<svg width="20" height="20" fill="none" xmlns="http://www.w3.org/2000/svg"><path d="M19.011.75l-7.813 5.781 1.453-3.407L19.011.75z" fill="url(#prefix__paint0_linear_9993_54109)"/><path d="M19.011.75l-7.813 5.781 1.453-3.407L19.011.75z" fill="url(#prefix__paint1_linear_9993_54109)"/><path d="M.99.75l7.743 5.835-1.383-3.46L.99.75z" fill="url(#prefix__paint2_linear_9993_54109)"/><path d="M.99.75l7.743 5.835-1.383-3.46L.99.75z" fill="url(#prefix__paint3_linear_9993_54109)"/><path d="M16.198 14.155L14.12 17.33l4.451 1.226 1.275-4.332-3.648-.07z" fill="url(#prefix__paint4_linear_9993_54109)"/><path d="M16.198 14.155L14.12 17.33l4.451 1.226 1.275-4.332-3.648-.07z" fill="url(#prefix__paint5_linear_9993_54109)"/><path d="M.163 14.224l1.267 4.332 4.444-1.226-2.071-3.175-3.64.069z" fill="url(#prefix__paint6_linear_9993_54109)"/><path d="M.163 14.224l1.267 4.332 4.444-1.226-2.071-3.175-3.64.069z" fill="url(#prefix__paint7_linear_9993_54109)"/><path d="M5.634 8.79l-1.237 1.865 4.405.2-.146-4.74L5.634 8.79z" fill="url(#prefix__paint8_linear_9993_54109)"/><path d="M5.634 8.79l-1.237 1.865 4.405.2-.146-4.74L5.634 8.79z" fill="url(#prefix__paint9_linear_9993_54109)"/><path d="M14.367 8.79L11.299 6.06l-.1 4.795 4.404-.2-1.236-1.866z" fill="url(#prefix__paint10_linear_9993_54109)"/><path d="M5.874 17.33l2.666-1.287-2.295-1.788-.371 3.075zM11.46 16.043l2.659 1.287-.363-3.075-2.296 1.788z" fill="#E27625"/><path d="M14.119 17.33l-2.659-1.287.217 1.727-.023.732 2.465-1.172z" fill="url(#prefix__paint11_linear_9993_54109)"/><path d="M5.874 17.33l2.473 1.172-.016-.732.209-1.727-2.666 1.287z" fill="url(#prefix__paint12_radial_9993_54109)"/><path d="M8.393 13.114l-2.21-.648 1.56-.717.65 1.365z" fill="url(#prefix__paint13_linear_9993_54109)"/><path d="M11.608 13.114l.65-1.365 1.568.717-2.218.648z" fill="url(#prefix__paint14_linear_9993_54109)"/><path d="M5.873 17.33l.387-3.175-2.458.069 2.071 3.106zM13.74 14.155l.379 3.175 2.079-3.106-2.458-.07zM15.603 10.655l-4.405.2.41 2.259.649-1.365 1.569.717 1.777-1.811zM6.183 12.466l1.56-.717.65 1.365.41-2.259-4.406-.2 1.786 1.811z" fill="#CC6228"/><path d="M4.397 10.655l1.847 3.6-.061-1.789-1.786-1.811zM13.826 12.466l-.07 1.789 1.847-3.6-1.777 1.811zM8.803 10.855l-.41 2.259.518 2.667.116-3.515-.224-1.41zM11.197 10.855l-.216 1.403.108 3.523.518-2.667-.41-2.259z" fill="#E27525"/><path d="M11.607 13.114l-.518 2.667.371.262 2.296-1.788.07-1.789-2.219.648z" fill="url(#prefix__paint15_linear_9993_54109)"/><path d="M6.183 12.466l.061 1.789 2.296 1.788.37-.262-.517-2.667-2.21-.648z" fill="url(#prefix__paint16_linear_9993_54109)"/><path d="M11.654 18.502l.023-.732-.2-.17H8.523l-.193.17.016.732-2.473-1.172.865.71 1.754 1.21H11.5l1.762-1.21.857-.71-2.465 1.172z" fill="#C0AC9D"/><path d="M11.46 16.043l-.371-.262h-2.18l-.37.262-.209 1.727.193-.17h2.952l.201.17-.216-1.727z" fill="url(#prefix__paint17_linear_9993_54109)"/><path d="M19.343 6.909L20 3.718 19.01.75l-7.55 5.588 2.906 2.452 4.104 1.194.904-1.056-.394-.285.626-.57-.48-.37.627-.478-.41-.316z" fill="url(#prefix__paint18_linear_9993_54109)"/><path d="M0 3.718l.665 3.191-.425.316.633.478-.479.37.626.57-.394.286.904 1.056L5.634 8.79 8.54 6.339.99.75 0 3.718z" fill="url(#prefix__paint19_linear_9993_54109)"/><path d="M18.47 9.985L14.368 8.79l1.236 1.865-1.847 3.6 2.442-.03h3.648l-1.375-4.24z" fill="url(#prefix__paint20_radial_9993_54109)"/><path d="M18.47 9.985L14.368 8.79l1.236 1.865-1.847 3.6 2.442-.03h3.648l-1.375-4.24z" fill="url(#prefix__paint21_linear_9993_54109)"/><path d="M5.634 8.79L1.53 9.985l-1.367 4.24h3.64l2.442.03-1.847-3.6L5.634 8.79z" fill="url(#prefix__paint22_radial_9993_54109)"/><path d="M5.634 8.79L1.53 9.985l-1.367 4.24h3.64l2.442.03-1.847-3.6L5.634 8.79z" fill="url(#prefix__paint23_linear_9993_54109)"/><path d="M11.2 10.856l.262-4.517 1.19-3.215H7.351L8.54 6.34l.262 4.517.1 1.418.009 3.507h2.179l.008-3.507.1-1.418z" fill="url(#prefix__paint24_linear_9993_54109)"/><defs><linearGradient id="prefix__paint0_linear_9993_54109" x1="12.175" y1="6.126" x2="22.215" y2="-4.073" gradientUnits="userSpaceOnUse"><stop stop-color="#E17726"/><stop offset="1" stop-color="#E17726" stop-opacity="0"/></linearGradient><linearGradient id="prefix__paint1_linear_9993_54109" x1="15.174" y1="6.167" x2="12.531" y2="-2.345" gradientUnits="userSpaceOnUse"><stop stop-color="#E27625"/><stop offset="1" stop-color="#FCA15C" stop-opacity=".83"/></linearGradient><linearGradient id="prefix__paint2_linear_9993_54109" x1="9.488" y1="6.6" x2="-.395" y2="-3.756" gradientUnits="userSpaceOnUse"><stop stop-color="#E27625"/><stop offset="1" stop-color="#E27625" stop-opacity="0"/></linearGradient><linearGradient id="prefix__paint3_linear_9993_54109" x1="4.93" y1="6.217" x2="2.222" y2="-2.346" gradientUnits="userSpaceOnUse"><stop stop-color="#E27625"/><stop offset="1" stop-color="#FCA15C" stop-opacity=".83"/></linearGradient><linearGradient id="prefix__paint4_linear_9993_54109" x1="13.124" y1="14.19" x2="18.739" y2="22.195" gradientUnits="userSpaceOnUse"><stop offset=".256" stop-color="#E27625"/><stop offset="1" stop-color="#E27625" stop-opacity="0"/></linearGradient><linearGradient id="prefix__paint5_linear_9993_54109" x1="17.034" y1="18.279" x2="14.958" y2="11.843" gradientUnits="userSpaceOnUse"><stop stop-color="#E27625"/><stop offset="1" stop-color="#FCA15C" stop-opacity=".83"/></linearGradient><linearGradient id="prefix__paint6_linear_9993_54109" x1="6.325" y1="14.19" x2="-.949" y2="20.831" gradientUnits="userSpaceOnUse"><stop offset=".247" stop-color="#E27625"/><stop offset="1" stop-color="#E27625" stop-opacity="0"/></linearGradient><linearGradient id="prefix__paint7_linear_9993_54109" x1="3.069" y1="18.279" x2=".989" y2="11.846" gradientUnits="userSpaceOnUse"><stop stop-color="#E27625"/><stop offset="1" stop-color="#FCA15C" stop-opacity=".83"/></linearGradient><linearGradient id="prefix__paint8_linear_9993_54109" x1="5.218" y1="10.079" x2="13.677" y2="3.122" gradientUnits="userSpaceOnUse"><stop stop-color="#E27625"/><stop offset="1" stop-color="#E27625" stop-opacity="0"/></linearGradient><linearGradient id="prefix__paint9_linear_9993_54109" x1="6.639" y1="10.557" x2="3.768" y2="4.201" gradientUnits="userSpaceOnUse"><stop stop-color="#E27625"/><stop offset="1" stop-color="#FCA15C" stop-opacity=".83"/></linearGradient><linearGradient id="prefix__paint10_linear_9993_54109" x1="13.44" y1="10.553" x2="10.515" y2="4.15" gradientUnits="userSpaceOnUse"><stop stop-color="#E27625"/><stop offset="1" stop-color="#FCA15C" stop-opacity=".83"/></linearGradient><linearGradient id="prefix__paint11_linear_9993_54109" x1="12.79" y1="16.043" x2="15.652" y2="22.446" gradientUnits="userSpaceOnUse"><stop stop-color="#D5BFB2"/><stop offset="1" stop-color="#D5BFB2" stop-opacity="0"/></linearGradient><linearGradient id="prefix__paint13_linear_9993_54109" x1="7.288" y1="11.749" x2="7.288" y2="13.114" gradientUnits="userSpaceOnUse"><stop stop-color="#041836"/><stop offset="1" stop-color="#17396B"/></linearGradient><linearGradient id="prefix__paint14_linear_9993_54109" x1="12.717" y1="11.749" x2="12.717" y2="13.114" gradientUnits="userSpaceOnUse"><stop stop-color="#041836"/><stop offset="1" stop-color="#17396B"/></linearGradient><linearGradient id="prefix__paint15_linear_9993_54109" x1="13.518" y1="12.451" x2="6.482" y2="20.515" gradientUnits="userSpaceOnUse"><stop offset=".2" stop-color="#F5841F"/><stop offset="1" stop-color="#F5841F" stop-opacity="0"/></linearGradient><linearGradient id="prefix__paint16_linear_9993_54109" x1="6.167" y1="12.451" x2="11.78" y2="19.803" gradientUnits="userSpaceOnUse"><stop offset=".328" stop-color="#F5841F"/><stop offset="1" stop-color="#F5841F" stop-opacity="0"/></linearGradient><linearGradient id="prefix__paint17_linear_9993_54109" x1="10.003" y1="15.781" x2="10.003" y2="17.77" gradientUnits="userSpaceOnUse"><stop stop-color="#041836"/><stop offset="1" stop-color="#17396B"/></linearGradient><linearGradient id="prefix__paint18_linear_9993_54109" x1="13.924" y1="8.012" x2="19.971" y2="3.831" gradientUnits="userSpaceOnUse"><stop stop-color="#592B0D"/><stop offset="1" stop-color="#763E1A"/></linearGradient><linearGradient id="prefix__paint19_linear_9993_54109" x1="7.942" y1="6.725" x2=".415" y2="2.673" gradientUnits="userSpaceOnUse"><stop stop-color="#592B0D"/><stop offset="1" stop-color="#763E1A"/></linearGradient><linearGradient id="prefix__paint21_linear_9993_54109" x1="16.855" y1="13.911" x2="13.945" y2="6.184" gradientUnits="userSpaceOnUse"><stop stop-color="#E27625"/><stop offset="1" stop-color="#FCA15C" stop-opacity=".83"/></linearGradient><linearGradient id="prefix__paint23_linear_9993_54109" x1="3.258" y1="13.911" x2=".345" y2="6.187" gradientUnits="userSpaceOnUse"><stop stop-color="#E27625"/><stop offset="1" stop-color="#FCA15C" stop-opacity=".83"/></linearGradient><linearGradient id="prefix__paint24_linear_9993_54109" x1="9.962" y1="3.122" x2="9.962" y2="28.579" gradientUnits="userSpaceOnUse"><stop offset=".268" stop-color="#F5841F"/><stop offset="1" stop-color="#FFC796" stop-opacity=".89"/></linearGradient><radialGradient id="prefix__paint12_radial_9993_54109" cx="0" cy="0" r="1" gradientUnits="userSpaceOnUse" gradientTransform="rotate(116.98 -.498 10.363) scale(12.5928 13.6543)"><stop stop-color="#D5BFB2"/><stop offset="1" stop-color="#D5BFB2" stop-opacity="0"/></radialGradient><radialGradient id="prefix__paint20_radial_9993_54109" cx="0" cy="0" r="1" gradientUnits="userSpaceOnUse" gradientTransform="matrix(8.62568 1.78463 -1.9886 9.61153 15.17 11.19)"><stop offset=".264" stop-color="#F5841F"/><stop offset="1" stop-color="#F5841F" stop-opacity="0"/></radialGradient><radialGradient id="prefix__paint22_radial_9993_54109" cx="0" cy="0" r="1" gradientUnits="userSpaceOnUse" gradientTransform="matrix(-14.62585 -5.37605 5.98288 -16.27676 6.878 14.19)"><stop offset=".3" stop-color="#F5841F"/><stop offset=".567" stop-color="#F5841F" stop-opacity="0"/></radialGradient></defs></svg>
